X:1
T:Queen’s Cross, LM
T:Queen’s Cross, LM
T:Kenneth George Finlay (1882–1974)
T:Public Domain Courtesy of the Cyber Hymnal™
C:Kenneth George Finlay (1882–1974)
Z:Public Domain
Z:Courtesy of the Cyber Hymnal™
%%score ( 1 2 ) ( 3 4 )
L:1/8
M:3/4
K:D
V:1 treble 
V:2 treble 
V:3 bass 
V:4 bass 
V:1
 [DF]2 [DF]2 [FA]2 | [EA]4 [CE]2 | G4 [CG]2 | [DF]6 | [EA]2 [EA]2 [CE]2 | [DF]4 [EA]2 | %6
 [Dd]4 [EB]2 | [Ec]6 | [Ec]2 [EB]2 A2 | d4 F2 | (F2 E2) [^DF]2 | [EG]6 | [EG]2 [A,G]2 [CA]2 | %13
 [DF]4 D2 | F4 z2 E2 | D6 |] %16
V:2
 x6 | x6 | (E3 D) x2 | x6 | x6 | x6 | x6 | x6 | x4 A2 | (A2 G2) F2 | C4 x2 | x6 | x6 | x4 D2 | %14
 D2 C4 x2 | D6 |] %16
V:3
 [D,A,]2 [D,A,]2 [D,D]2 | [C,A,]4 A,2 | [E,B,]4 [A,,A,]2 | [D,A,]6 | [C,A,]2 [C,A,]2 [A,,A,]2 | %5
 [D,A,]4 [C,E,]2 | [B,,F,]4 [E,^G,]2 | [A,,A,]6 | A,2 [A,D]2 [A,C]2 | [B,D]4 (DC) | %10
 [G,B,]4 [F,A,]2 | B,6 | [C,A,]2 [C,E,]2 [A,,E,]2 | [B,,D,]4 [B,,G,]2 | (A,2 G,2) [A,,G,]2 x2 | %15
 [D,F,]6 |] %16
V:4
 x6 | x4 A,2 | x6 | x6 | x6 | x6 | x6 | x6 | A,2 x4 | x4 A,2 | x6 | E,4 D,2 | x6 | x6 | A,,4 x4 | %15
 x6 |] %16

